!!!COM: Igor (Fyodorovich) Stravinsky
!!!OTL: [T387_Str-w35p74h143m1-h144m3]
**kern	**dynam	**kern	**dynam	**kern	**dynam	**kern	**dynam	**kern	**dynam	**kern	**dynam	**kern	**dynam	**kern	**dynam	**kern	**dynam	**kern	**dynam
*grp:A	*grp:A	*grp:B	*grp:B	*grp:B	*grp:B	*grp:B	*grp:B	*grp:B	*grp:B	*grp:A	*grp:A	*grp:A	*grp:A	*grp:A	*grp:A	*grp:A	*grp:A	*grp:A	*grp:A
*part10	*	*part9	*part9	*part8	*part8	*part7	*part7	*part6	*part6	*part5	*part5	*part4	*part4	*part3	*part3	*part2	*part2	*part1	*part1
*staff10	*	*staff9	*	*staff8	*	*staff7	*	*staff6	*	*staff5	*	*staff4	*	*staff3	*	*staff2	*	*staff1	*
*I"Contrabass	*	*I"Violoncello	*	*I"Viola	*	*I"Violin 2	*	*I"Violin 1	*	*I"Timpani	*	*I"Trombone 2	*	*I"Trombone 1	*	*I"Trumpet in C 2	*	*I"Trumpet in C 1	*
*I'Cb.	*	*I'Vc.	*	*I'Vla.	*	*I'Vln. 2	*	*I'Vln. 1	*	*I'Timp.	*	*I'Tbn. 2	*	*I'Tbn. 1	*	*I'C Tpt. 2	*	*I'C Tpt. 1	*
*clefF4	*	*clefF4	*	*clefC3	*	*clefG2	*	*clefG2	*	*clefF4	*	*clefC4	*	*clefC4	*	*clefG2	*	*clefG2	*
*ITrd7c12	*	*	*	*	*	*	*	*	*	*	*	*	*	*	*	*	*	*	*
*k[b-e-a-]	*	*k[b-e-a-]	*	*k[b-e-a-]	*	*k[b-e-a-]	*	*k[b-e-a-]	*	*k[]	*	*k[b-e-a-]	*	*k[b-e-a-]	*	*k[b-e-a-]	*	*k[b-e-a-]	*
*E-:	*	*E-:	*	*E-:	*	*E-:	*	*E-:	*	*C:	*	*E-:	*	*E-:	*	*E-:	*	*E-:	*
*M3/4	*	*M3/4	*	*M3/4	*	*M3/4	*	*M3/4	*	*M3/4	*	*M3/4	*	*M3/4	*	*M3/4	*	*M3/4	*
!!LO:REH:t=143
=121	=121	=121	=121	=121	=121	=121	=121	=121	=121	=121	=121	=121	=121	=121	=121	=121	=121	=121	=121
!LO:TX:a:t=pizz.	!LO:DY:t=sempre %s	!	!	!LO:TX:a:t=div.	!	!LO:TX:a:t=div.	!	!	!	!	!LO:DY:t=poco %s - secco	!	!	!	!	!	!	!LO:TX:t=[[quarter]=184]	!
4E-	sf	8r	.	8r	.	8r	.	8r	.	4E-X	sf	4%3r	.	4%3r	.	4%3r	.	4%3r	.
*	*	*clefC4	*	*	*	*	*	*	*	*	*	*	*	*	*	*	*	*	*
.	.	8Bn'^uL	sf	8f'^uL 8a-	sf	8f'^uL 8a-	sf	8dd-X'^uL	sf	.	.	.	.	.	.	.	.	.	.
8r	.	(8c'	.	(8f' 8a-	.	(8f' 8a-	.	(8dd-'	.	8r	.	.	.	.	.	.	.	.	.
8BB-	.	8d-X'J)	.	8f'J 8a-)	.	8f'J 8a-)	.	8dd-'J)	.	8BB-X'	.	.	.	.	.	.	.	.	.
4r	.	8dn'L	.	8f'L 8a-	.	8f'L 8a-	.	8dd-'L	.	4r'	.	.	.	.	.	.	.	.	.
.	.	8en'J	.	8f'J 8a-	.	8f'J 8a-	.	8cc'J	.	.	.	.	.	.	.	.	.	.	.
=122	=122	=122	=122	=122	=122	=122	=122	=122	=122	=122	=122	=122	=122	=122	=122	=122	=122	=122	=122
4GG	.	8e-X'L	.	8f'L 8a-	.	8f'L 8a-	.	8cc-X'L	.	4GG'	.	4r	.	4r	.	4r	.	4r	.
.	.	8c-X'J	.	8f'J 8a-	.	8f'J 8a-	.	8b-'J	.	.	.	.	.	.	.	.	.	.	.
8r	.	4r	.	4r	.	4r	.	4r	.	8r	.	8r	.	8r	.	8r	.	8r	.
!	!	!	!	!	!	!	!	!	!	!	!	!	!LO:DY:t=%s ma leggiero	!	!LO:DY:t=%s ma leggiero	!	!LO:DY:t=%s ma leggiero	!	!LO:DY:t=%s ma leggiero
8BB-	.	.	.	.	.	.	.	.	.	8BB-X'	.	8d'^L	sf	8f'^L	sf	8a-'^L	sf	8an'^L	sf
4r	.	4r	.	4r	.	4r	.	4r	.	4r	.	8d-X'	.	8f'	.	8a-'	.	8b-'	.
.	.	.	.	.	.	.	.	.	.	.	.	8c'J	.	8f'J	.	8a-'J	.	8bn'J	.
=123	=123	=123	=123	=123	=123	=123	=123	=123	=123	=123	=123	=123	=123	=123	=123	=123	=123	=123	=123
4E-	.	8r	.	8r	.	8r	.	8r	.	4E-X	.	4r	.	4r	.	4r	.	4r	.
.	.	8d-X'^uL	.	8f'^uL 8a-	.	8f'^uL 8a-	.	8b-'^uL	.	.	.	.	.	.	.	.	.	.	.
8r	.	(8c'	.	(8f' 8a-	.	(8f' 8a-	.	(8bn'	.	8r	.	4r	.	4r	.	4r	.	4r	.
8BB-	.	8c-X'J)	.	8f'J 8a-)	.	8f'J 8a-)	.	8cc'J)	.	8BB-X	.	.	.	.	.	.	.	.	.
4r	.	4r	.	4r	.	4r	.	4r	.	4r	.	8r	.	8r	.	8r	.	8r	.
.	.	.	.	.	.	.	.	.	.	.	.	8c-X'	.	8f'	.	8a-'	.	8dd-X'	.
!!pagebreak:original
=124	=124	=124	=124	=124	=124	=124	=124	=124	=124	=124	=124	=124	=124	=124	=124	=124	=124	=124	=124
4GG	.	8r	.	8r	.	8r	.	8r	.	4GG	.	4%3r	.	4%3r	.	4%3r	.	4%3r	.
.	.	8c-X'^uL	.	8f'^uL 8a-	.	8f'^uL 8a-	.	8dd-X'^uL	.	.	.	.	.	.	.	.	.	.	.
8r	.	(8cn'	.	(8f' 8a-	.	(8f' 8a-	.	(8dd-'	.	8r	.	.	.	.	.	.	.	.	.
8BB-	.	8d-X'J)	.	8f'J 8a-)	.	8f'J 8a-)	.	8dd-'J)	.	8BB-X	.	.	.	.	.	.	.	.	.
4r	.	8dn'L	.	8f'L 8a-	.	8f'L 8a-	.	8dd-'L	.	4r	.	.	.	.	.	.	.	.	.
.	.	8e-'J	.	8f'J 8a-	.	8f'J 8a-	.	8cc'J	.	.	.	.	.	.	.	.	.	.	.
!!LO:REH:t=144
=125	=125	=125	=125	=125	=125	=125	=125	=125	=125	=125	=125	=125	=125	=125	=125	=125	=125	=125	=125
4E-	.	8e-'L	.	8f'L 8a-	.	8f'L 8a-	.	8cc-X'L	.	4E-X	.	4r	.	4r	.	4r	.	4r	.
.	.	8c-X'J	.	8f'J 8a-	.	8f'J 8a-	.	8b-'J	.	.	.	.	.	.	.	.	.	.	.
8r	.	4r	.	4r	.	4r	.	4r	.	8r	.	8r	.	8r	.	8r	.	8r	.
!	!	!	!	!	!	!	!	!	!	!	!	!LO:TX:b:i:t=simile	!	!LO:TX:b:i:t=simile	!	!LO:TX:b:i:t=simile	!	!LO:TX:b:i:t=simile	!
8BB-	.	.	.	.	.	.	.	.	.	8BB-X	.	8c-X^L	.	8f^L	.	8a-^L	.	8dd-X^L	.
4r	.	4r	.	4r	.	4r	.	4r	.	4r	.	8cn	.	8f	.	8a-	.	8dd-	.
.	.	.	.	.	.	.	.	.	.	.	.	8d-XJ	.	8fJ	.	8a-J	.	8dd-J	.
=126	=126	=126	=126	=126	=126	=126	=126	=126	=126	=126	=126	=126	=126	=126	=126	=126	=126	=126	=126
4GG	.	4%3r	.	4r	.	4r	.	4r	.	4GG	.	8cL	.	8fL	.	8a-L	.	8dd-XL	.
.	.	.	.	.	.	.	.	.	.	.	.	8d-XJ	.	8fJ	.	8a-J	.	8ccJ	.
8r	.	.	.	4r	.	4r	.	4r	.	8r	.	8dnL	.	8fL	.	8a-L	.	8cc-XL	.
8BB-	.	.	.	.	.	.	.	.	.	8BB-X	.	8e-J	.	8fJ	.	8a-J	.	8b-J	.
!	!	!	!	!LO:TX:a:t=unis.	!	!LO:TX:a:t=unis.	!	!LO:TX:a:t=unis.	!	!	!	!	!	!	!	!	!	!	!
4r	.	.	.	8r	.	8r	.	8r	.	4r	.	4r	.	4r	.	4r	.	4r	.
!	!	!	!	!	!LO:DY:t=%s assai	!	!LO:DY:t=%s assai	!	!LO:DY:t=%s assai	!	!	!	!	!	!	!	!	!	!
.	.	.	.	8d-X`^ 8f 8dd-X	sf	\8f`^ 8a- 8dd-X	sf	8f`^u 8a- 8dd-X	sf	.	.	.	.	.	.	.	.	.	.
=127	=127	=127	=127	=127	=127	=127	=127	=127	=127	=127	=127	=127	=127	=127	=127	=127	=127	=127	=127
4E-	.	4r	.	8r	.	8r	.	8r	.	4E-X	.	4%3r	.	4%3r	.	4%3r	.	4%3r	.
.	.	.	.	8dn`^ 8f#X 8ddn	.	\8f#X`^ 8an 8ddn	.	8dn'`^ 8f#X 8an	.	.	.	.	.	.	.	.	.	.	.
8r	.	8r	.	8r	.	8r	.	8r	.	8r	.	.	.	.	.	.	.	.	.
!	!	!	!	!LO:TX:a:t=div.	!	!LO:TX:a:t=div.	!	!	!	!	!	!	!	!	!	!	!	!	!
8BB-Z	.	8Bn'^uL	.	8g^uL 8bn	.	8g^uL 8bn	.	8dd^uL	.	8BB-X	.	.	.	.	.	.	.	.	.
4r	.	(8c#X'	.	(8g' 8b	.	(8g' 8b	.	(8dd'	.	4r	.	.	.	.	.	.	.	.	.
.	.	8d'J)	.	8g'J 8b)	.	8g'J 8b)	.	8cc#X'J)	.	.	.	.	.	.	.	.	.	.	.
=	=	=	=	=	=	=	=	=	=	=	=	=	=	=	=	=	=	=	=
*-	*-	*-	*-	*-	*-	*-	*-	*-	*-	*-	*-	*-	*-	*-	*-	*-	*-	*-	*-
!!!system-decoration: [({(s1,s2)})][({(s3,s4)})][s5][s6,s7,s8,s9,s10]
!!!RDF**kern: i = editorial accidental
!!!RDF**kern: j = editorial accidental, bracket
!!!RDF**kern: Z = editorial accidental, parentheses
!!!EED: Daniel Wright
!!!EEV: 2021/07/28
